svg/fluentui-system-icons/ic_fluent_dual_screen_mirror_20_regular.svg

<svg width="20" height="20" viewBox="0 0 20 20" fill="none" xmlns="http://www.w3.org/2000/svg">
<path d="M4 4C2.89543 4 2 4.89543 2 6V14C2 15.1046 2.89543 16 4 16H16C17.1046 16 18 15.1046 18 14V6C18 4.89543 17.1046 4 16 4H4ZM3 6C3 5.44772 3.44772 5 4 5H9.5V15H4C3.44772 15 3 14.5523 3 14V6ZM10.5 15V5H16C16.5523 5 17 5.44772 17 6V14C17 14.5523 16.5523 15 16 15H10.5ZM6.25 8C6.42783 8 6.59228 8.09446 6.68189 8.24806L8.43189 11.2481C8.5221 11.4027 8.52274 11.5938 8.43357 11.749C8.3444 11.9043 8.17903 12 8 12H4.5C4.32097 12 4.1556 11.9043 4.06643 11.749C3.97726 11.5938 3.9779 11.4027 4.06811 11.2481L5.81811 8.24806C5.90772 8.09446 6.07217 8 6.25 8ZM7.12948 11L6.25 9.49232L5.37052 11H7.12948ZM14.1819 8.24806L15.9319 11.2481C16.0221 11.4027 16.0227 11.5938 15.9336 11.749C15.8444 11.9043 15.679 12 15.5 12H12C11.821 12 11.6556 11.9043 11.5664 11.749C11.4773 11.5938 11.4779 11.4027 11.5681 11.2481L13.3181 8.24806C13.4077 8.09446 13.5722 8 13.75 8C13.9278 8 14.0923 8.09446 14.1819 8.24806ZM14.6295 11L13.75 9.49232L12.8705 11H14.6295Z" fill="#212121"/>
</svg>

<svg xmlns="http://www.w3.org/2000/svg" width="20" height="20"><path d="M4 4a2 2 0 0 0-2 2v8a2 2 0 0 0 2 2h12a2 2 0 0 0 2-2V6a2 2 0 0 0-2-2H4ZM3 6a1 1 0 0 1 1-1h5.5v10H4a1 1 0 0 1-1-1V6Zm7.5 9V5H16a1 1 0 0 1 1 1v8a1 1 0 0 1-1 1h-5.5ZM6.25 8a.5.5 0 0 1 .432.248l1.75 3A.5.5 0 0 1 8 12H4.5a.5.5 0 0 1-.432-.752l1.75-3A.5.5 0 0 1 6.25 8Zm.88 3-.88-1.508L5.37 11h1.76Zm7.052-2.752 1.75 3A.5.5 0 0 1 15.5 12H12a.5.5 0 0 1-.432-.752l1.75-3a.5.5 0 0 1 .864 0ZM14.629 11l-.879-1.508L12.87 11h1.76Z"/></svg>
